svgs/sharp-light/keyboard-left.svg

<svg xmlns="http://www.w3.org/2000/svg" viewBox="0 0 640 512"><!--! Font Awesome Pro 6.5.2 by @fontawesome - https://fontawesome.com License - https://fontawesome.com/license (Commercial License) Copyright 2024 Fonticons, Inc. --><path d="M608 96V416H192V96H608zM192 64H160V96 416v32h32H608h32V416 96 64H608 192zm40 72v48h48V136H232zm48 96H232v48h48V232zm-48 96v48h48V328H232zM376 136H328v48h48V136zm-48 96v48h48V232H328zm144-96H424v48h48V136zm-48 96v48h48V232H424zm144-96H520v48h48V136zm-48 96v48h48V232H520zm48 96H520v48h48V328zm-232 8H320v32h16H464h16V336H464 336zM115.3 187.3L126.6 176 104 153.4 92.7 164.7l-80 80L1.4 256l11.3 11.3 80 80L104 358.6 126.6 336l-11.3-11.3L46.6 256l68.7-68.7z"/></svg>

<svg xmlns="http://www.w3.org/2000/svg" viewBox="0 0 640 512"><!--! Font Awesome Pro 6.6.0 by @fontawesome - https://fontawesome.com License - https://fontawesome.com/license (Commercial License) Copyright 2024 Fonticons, Inc. --><path d="M608 96l0 320-416 0 0-320 416 0zM192 64l-32 0 0 32 0 320 0 32 32 0 416 0 32 0 0-32 0-320 0-32-32 0L192 64zm40 72l0 48 48 0 0-48-48 0zm48 96l-48 0 0 48 48 0 0-48zm-48 96l0 48 48 0 0-48-48 0zM376 136l-48 0 0 48 48 0 0-48zm-48 96l0 48 48 0 0-48-48 0zm144-96l-48 0 0 48 48 0 0-48zm-48 96l0 48 48 0 0-48-48 0zm144-96l-48 0 0 48 48 0 0-48zm-48 96l0 48 48 0 0-48-48 0zm48 96l-48 0 0 48 48 0 0-48zm-232 8l-16 0 0 32 16 0 128 0 16 0 0-32-16 0-128 0zM115.3 187.3L126.6 176 104 153.4 92.7 164.7l-80 80L1.4 256l11.3 11.3 80 80L104 358.6 126.6 336l-11.3-11.3L46.6 256l68.7-68.7z"/></svg>
